_icons/iconColor.svg

<svg width="250" height="250" viewBox="0 0 250 250" version="1.1" xmlns="http://www.w3.org/2000/svg" xmlns:xlink="http://www.w3.org/1999/xlink" xml:space="preserve" style="fill-rule:evenodd;clip-rule:evenodd;stroke-linejoin:round;stroke-miterlimit:2;">
    <path d="M49.027,0c9.374,-0 16.973,7.599 16.973,16.973l0,233.027l-23.299,0c-11.325,0 -22.186,-4.499 -30.194,-12.507c-8.008,-8.008 -12.507,-18.869 -12.507,-30.194l-0,-190.326c0,-9.374 7.599,-16.973 16.973,-16.973l32.054,-0Zm200.973,-0l0,20.217c-0,12.142 -4.824,23.787 -13.41,32.373c-8.586,8.586 -20.231,13.41 -32.373,13.41l-110.412,-0c-9.281,-0 -16.805,-7.524 -16.805,-16.805l0,-32.39c0,-9.281 7.524,-16.805 16.805,-16.805l156.195,-0Z" style="fill:#f33;"/>
    <path d="M179.358,122.23c2.193,1.087 3.58,3.323 3.58,5.77c0,2.447 -1.387,4.683 -3.58,5.77l-92.732,45.959c-2.066,1.024 -4.515,0.907 -6.474,-0.308c-1.96,-1.216 -3.152,-3.359 -3.152,-5.665l-0,-91.512c0,-2.306 1.192,-4.449 3.152,-5.665c1.959,-1.215 4.408,-1.332 6.474,-0.308l92.732,45.959Z" style="fill:#29abe1;"/>
</svg>

<svg width="250" height="250" xmlns="http://www.w3.org/2000/svg" xml:space="preserve" style="fill-rule:evenodd;clip-rule:evenodd;stroke-linejoin:round;stroke-miterlimit:2"><path d="M49.027 0C58.401 0 66 7.599 66 16.973V250H42.701A42.7 42.7 0 0 1 0 207.299V16.973C0 7.599 7.599 0 16.973 0h32.054zM250 0v20.217A45.783 45.783 0 0 1 204.217 66H93.805C84.524 66 77 58.476 77 49.195v-32.39C77 7.524 84.524 0 93.805 0H250z" style="fill:#f33"/><path d="M179.358 122.23a6.44 6.44 0 0 1 0 11.54l-92.732 45.959A6.667 6.667 0 0 1 77 173.756V82.244a6.667 6.667 0 0 1 9.626-5.973l92.732 45.959z" style="fill:#29abe1"/></svg>
